devices/24/video-television.svg

<svg xmlns="http://www.w3.org/2000/svg" viewBox="0 0 24 24" width="24" height="24">
  <defs id="defs3051">
    <style type="text/css" id="current-color-scheme">.ColorScheme-Text {color:#eff0f1;}</style>
  </defs>
  <g transform="translate(1,1)">
    <path style="fill:currentColor;fill-opacity:1;stroke:none" d="m 2,7 c 0,3 0,3 0,6 0,3 3,3 3,3 l 5,-5e-6 V 17 H 7 v 1 h 8 v -1 h -3 v -1.000005 l 5,-3.5e-5 c 0,0 3,4e-5 3,-2.99996 0,-3 0,-2.847079 0,-5.9235395 C 20,4 17,3.99996 17,3.99996 L 5,4 C 5,4 2,4 2,7 Z M 3,7 C 3,5 5,4.999997 5,4.999997 L 17.017685,5 C 17.017685,5 19,5 19,7 c 0,2 0,4 0,6 0,2 -2,1.999963 -2,1.999963 l -12,3.5e-5 C 5,14.999998 3,15 3,13 3,11 3,9 3,7 Z" class="ColorScheme-Text"/>
  </g>
</svg>

<svg xmlns="http://www.w3.org/2000/svg" viewBox="0 0 22 22">
  <defs id="defs3051">
    <style type="text/css" id="current-color-scheme">
      .ColorScheme-Text {
        color:#eff0f1;
      }
      </style>
  </defs>
  <path
     style="fill:currentColor;fill-opacity:1;stroke:none" 
     d="M 5 4 C 3.338 4 2 5.338 2 7 L 2 13 C 2 14.662 3.338 16 5 16 L 10 16 L 10 17 L 7 17 L 7 18 L 15 18 L 15 17 L 12 17 L 12 16 L 17 16 C 18.662 16 20 14.662 20 13 L 20 7 C 20 5.338 18.662 4 17 4 L 5 4 z M 5 5 L 17 5 C 18.108 5 19 5.892 19 7 L 19 13 C 19 14.108 18.108 15 17 15 L 12 15 L 10 15 L 5 15 C 3.892 15 3 14.108 3 13 L 3 7 C 3 5.892 3.892 5 5 5 z "
    class="ColorScheme-Text"
      />
</svg>
